X: 1
T:Farewell to the Moy
M:3/4
L:1/8
Q:120
C:Chris Corrigan
R:Waltz
H:The Moy is the town on the Blackwater River which separates Co. Armagh
H:and Co. Tyrone.  It is where my family lived until the 1870s when they
H:moved to Canada.  There are still some Corrigans and Sinclairs who live
H:there.
K:G
E3 F G2|B e3 f|g2 f e3|f d3-d2|E3 F G2| B e3 f2|g e3 d2|e6|
f2 g e3|d2 e B3|B2 c3 B|A2 B E3|F2 G3 A|B3 c B2|A3 G F2|D2 E4||
g3 e g2|f3 d f2|e3 f g2|d B3-B2|c3 A c2|B3 A G2|A G3 F2|E3 EGB|
g3 e g2|a3 g a2|b2 a2 g2|a f3-f2|g3 f f2|f3 e d2|e g3 f2 e6||
